X: 141
T: The Canadian Club
T: Jig, A
C: Frank Ferrel
L: 1/16
M: 6/8
K: A
A4B2 | c6 c2B2A2| E6 E2A2B2| c6 c2B2A2| e6 e4c2| d2f2d2 d2c2B2| c2e2c2 c2B2A2| B6 g4f2| e2f2d2 c2d2B2| 
c6 c2B2A2| E6 E2A2B2| c6 c2B2A2| e6 e4c2| d2f2d2 d2c2B2| c2a2f2 e2c2A2| B2c2B2 E2F2G2| A6 || 
|: a4=g2 | f2a2f2 d2f2a2| e2c2A2 A2B2c2| B2c2B2 E2F2G2| A2G2A2 c2B2A2| f2d2f2 a2g2f2| e2a2f2 e2c2A2| B2c2B2 E2F2G2| A6 :| 
D: Buddy MacMaster, The Judique Flyer
